public/icons/telegram.svg

<svg width="48" height="48" viewBox="0 0 48 48" fill="none" xmlns="http://www.w3.org/2000/svg">
    <rect x="0.5" y="0.5" width="47" height="47" rx="23.5" stroke="white" />
    <path
        d="M13.3537 23.1501C13.3537 23.1501 23.1191 19.037 26.506 17.5887C27.8043 17.0095 32.2072 15.1556 32.2072 15.1556C32.2072 15.1556 34.2393 14.3446 34.07 16.3143C34.0135 17.1253 33.5619 19.9639 33.1104 23.0342C32.433 27.3791 31.6992 32.1293 31.6992 32.1293C31.6992 32.1293 31.5863 33.4618 30.6267 33.6935C29.6671 33.9252 28.0865 32.8825 27.8043 32.6507C27.5784 32.477 23.5707 29.8701 22.1031 28.5956C21.7079 28.248 21.2564 27.5529 22.1595 26.7418C24.1916 24.8301 26.6189 22.455 28.0865 20.9488C28.7639 20.2536 29.4412 18.6315 26.6188 20.6011C22.6111 23.4398 18.6598 26.1046 18.6598 26.1046C18.6598 26.1046 17.7566 26.6839 16.0632 26.1625C14.3697 25.6412 12.394 24.946 12.394 24.946C12.394 24.946 11.0394 24.077 13.3537 23.1501Z"
        fill="white" />
</svg>

<svg xmlns="http://www.w3.org/2000/svg" width="48" height="48" fill="none"><rect width="47" height="47" x=".5" y=".5" stroke="#fff" rx="23.5"/><path fill="#fff" d="M13.354 23.15s9.765-4.113 13.152-5.561c1.298-.58 5.701-2.433 5.701-2.433s2.032-.811 1.863 1.158c-.056.811-.508 3.65-.96 6.72-.677 4.345-1.41 9.095-1.41 9.095s-.114 1.333-1.073 1.565c-.96.231-2.54-.812-2.823-1.043-.226-.174-4.233-2.78-5.7-4.055-.396-.348-.848-1.043.056-1.854a218.105 218.105 0 0 0 5.927-5.793c.677-.695 1.354-2.318-1.468-.348-4.008 2.839-7.96 5.504-7.96 5.504s-.902.579-2.596.058c-1.693-.522-3.669-1.217-3.669-1.217s-1.355-.869.96-1.796Z"/></svg>
